modules/coreui-icons-free/icons/bar-chart.svg

<!-- Generated by IcoMoon.io -->
<svg version="1.1" xmlns="http://www.w3.org/2000/svg" width="24" height="24" viewBox="0 0 24 24">
<title>bar-chart</title>
<path d="M6.375 19.5h4.125c0.621-0.001 1.124-0.504 1.125-1.125v-9.75c-0.001-0.621-0.504-1.124-1.125-1.125h-4.125c-0.621 0.001-1.124 0.504-1.125 1.125v9.75c0.001 0.621 0.504 1.124 1.125 1.125h0zM6.75 9h3.375v9h-3.375z"></path>
<path d="M19.875 0.75h-4.125c-0.621 0.001-1.124 0.504-1.125 1.125v16.5c0.001 0.621 0.504 1.124 1.125 1.125h4.125c0.621-0.001 1.124-0.504 1.125-1.125v-16.5c-0.001-0.621-0.504-1.124-1.125-1.125h-0zM19.5 18h-3.375v-15.75h3.375z"></path>
<path d="M2.25 0.75h-1.5v22.5h22.5v-1.5h-21v-21z"></path>
</svg>

<svg xmlns="http://www.w3.org/2000/svg" width="24" height="24" viewBox="0 0 24 24"><path d="M6.375 19.5H10.5a1.127 1.127 0 001.125-1.125v-9.75A1.127 1.127 0 0010.5 7.5H6.375A1.127 1.127 0 005.25 8.625v9.75A1.127 1.127 0 006.375 19.5zM6.75 9h3.375v9H6.75zM19.875.75H15.75a1.127 1.127 0 00-1.125 1.125v16.5A1.127 1.127 0 0015.75 19.5h4.125A1.127 1.127 0 0021 18.375v-16.5A1.127 1.127 0 0019.875.75zM19.5 18h-3.375V2.25H19.5z"/><path d="M2.25.75H.75v22.5h22.5v-1.5h-21v-21z"/></svg>
